dist/img/offices/floor-txt2.svg

<svg width="1073" height="102" viewBox="0 0 1073 102" fill="none" xmlns="http://www.w3.org/2000/svg">
<g clip-path="url(#clip0_187_1914)">
<rect width="1073" height="102" fill="#C01818" fill-opacity="0.8"/>
<path d="M381.25 63H365.281V59.6406L371.016 53.8438C372.714 52.1042 373.823 50.901 374.344 50.2344C374.865 49.5573 375.24 48.9323 375.469 48.3594C375.698 47.7865 375.812 47.1927 375.812 46.5781C375.812 45.6615 375.557 44.9792 375.047 44.5312C374.547 44.0833 373.875 43.8594 373.031 43.8594C372.146 43.8594 371.286 44.0625 370.453 44.4688C369.62 44.875 368.75 45.4531 367.844 46.2031L365.219 43.0938C366.344 42.1354 367.276 41.4583 368.016 41.0625C368.755 40.6667 369.562 40.3646 370.438 40.1562C371.312 39.9375 372.292 39.8281 373.375 39.8281C374.802 39.8281 376.062 40.0885 377.156 40.6094C378.25 41.1302 379.099 41.8594 379.703 42.7969C380.307 43.7344 380.609 44.8073 380.609 46.0156C380.609 47.0677 380.422 48.0573 380.047 48.9844C379.682 49.901 379.109 50.8438 378.328 51.8125C377.557 52.7812 376.193 54.1615 374.234 55.9531L371.297 58.7188V58.9375H381.25V63ZM398.234 63H393.469V40.1562H406.562V44.125H398.234V50.0156H405.984V53.9688H398.234V63ZM415.422 63H410.656V38.6875H415.422V63ZM424.234 54.2344C424.234 55.9635 424.516 57.2708 425.078 58.1562C425.651 59.0417 426.578 59.4844 427.859 59.4844C429.13 59.4844 430.042 59.0469 430.594 58.1719C431.156 57.2865 431.438 55.974 431.438 54.2344C431.438 52.5052 431.156 51.2083 430.594 50.3438C430.031 49.4792 429.109 49.0469 427.828 49.0469C426.557 49.0469 425.641 49.4792 425.078 50.3438C424.516 51.1979 424.234 52.4948 424.234 54.2344ZM436.312 54.2344C436.312 57.0781 435.562 59.3021 434.062 60.9062C432.562 62.5104 430.474 63.3125 427.797 63.3125C426.12 63.3125 424.641 62.9479 423.359 62.2188C422.078 61.4792 421.094 60.4219 420.406 59.0469C419.719 57.6719 419.375 56.0677 419.375 54.2344C419.375 51.3802 420.12 49.1615 421.609 47.5781C423.099 45.9948 425.193 45.2031 427.891 45.2031C429.568 45.2031 431.047 45.5677 432.328 46.2969C433.609 47.026 434.594 48.0729 435.281 49.4375C435.969 50.8021 436.312 52.401 436.312 54.2344ZM444.047 54.2344C444.047 55.9635 444.328 57.2708 444.891 58.1562C445.464 59.0417 446.391 59.4844 447.672 59.4844C448.943 59.4844 449.854 59.0469 450.406 58.1719C450.969 57.2865 451.25 55.974 451.25 54.2344C451.25 52.5052 450.969 51.2083 450.406 50.3438C449.844 49.4792 448.922 49.0469 447.641 49.0469C446.37 49.0469 445.453 49.4792 444.891 50.3438C444.328 51.1979 444.047 52.4948 444.047 54.2344ZM456.125 54.2344C456.125 57.0781 455.375 59.3021 453.875 60.9062C452.375 62.5104 450.286 63.3125 447.609 63.3125C445.932 63.3125 444.453 62.9479 443.172 62.2188C441.891 61.4792 440.906 60.4219 440.219 59.0469C439.531 57.6719 439.188 56.0677 439.188 54.2344C439.188 51.3802 439.932 49.1615 441.422 47.5781C442.911 45.9948 445.005 45.2031 447.703 45.2031C449.38 45.2031 450.859 45.5677 452.141 46.2969C453.422 47.026 454.406 48.0729 455.094 49.4375C455.781 50.8021 456.125 52.401 456.125 54.2344ZM469.812 45.2031C470.458 45.2031 470.995 45.25 471.422 45.3438L471.062 49.8125C470.677 49.7083 470.208 49.6562 469.656 49.6562C468.135 49.6562 466.948 50.0469 466.094 50.8281C465.25 51.6094 464.828 52.7031 464.828 54.1094V63H460.062V45.5312H463.672L464.375 48.4688H464.609C465.151 47.4896 465.88 46.7031 466.797 46.1094C467.724 45.5052 468.729 45.2031 469.812 45.2031ZM481.359 56.375V52.4688H489.75V56.375H481.359ZM522.641 51.5469C522.641 55.3281 521.703 58.2344 519.828 60.2656C517.953 62.2969 515.266 63.3125 511.766 63.3125C508.266 63.3125 505.578 62.2969 503.703 60.2656C501.828 58.2344 500.891 55.3177 500.891 51.5156C500.891 47.7135 501.828 44.8125 503.703 42.8125C505.589 40.8021 508.286 39.7969 511.797 39.7969C515.307 39.7969 517.99 40.8073 519.844 42.8281C521.708 44.849 522.641 47.7552 522.641 51.5469ZM505.969 51.5469C505.969 54.099 506.453 56.0208 507.422 57.3125C508.391 58.6042 509.839 59.25 511.766 59.25C515.63 59.25 517.562 56.6823 517.562 51.5469C517.562 46.401 515.641 43.8281 511.797 43.8281C509.87 43.8281 508.417 44.4792 507.438 45.7812C506.458 47.0729 505.969 48.9948 505.969 51.5469ZM536.656 49.1094H532.531V63H527.766V49.1094H525.141V46.8125L527.766 45.5312V44.25C527.766 42.2604 528.255 40.8073 529.234 39.8906C530.214 38.974 531.781 38.5156 533.938 38.5156C535.583 38.5156 537.047 38.7604 538.328 39.25L537.109 42.75C536.151 42.4479 535.266 42.2969 534.453 42.2969C533.776 42.2969 533.286 42.5 532.984 42.9062C532.682 43.3021 532.531 43.8125 532.531 44.4375V45.5312H536.656V49.1094ZM549.047 49.1094H544.922V63H540.156V49.1094H537.531V46.8125L540.156 45.5312V44.25C540.156 42.2604 540.646 40.8073 541.625 39.8906C542.604 38.974 544.172 38.5156 546.328 38.5156C547.974 38.5156 549.438 38.7604 550.719 39.25L549.5 42.75C548.542 42.4479 547.656 42.2969 546.844 42.2969C546.167 42.2969 545.677 42.5 545.375 42.9062C545.073 43.3021 544.922 43.8125 544.922 44.4375V45.5312H549.047V49.1094ZM551.531 41.0156C551.531 39.4635 552.396 38.6875 554.125 38.6875C555.854 38.6875 556.719 39.4635 556.719 41.0156C556.719 41.7552 556.5 42.3333 556.062 42.75C555.635 43.1562 554.99 43.3594 554.125 43.3594C552.396 43.3594 551.531 42.5781 551.531 41.0156ZM556.5 63H551.734V45.5312H556.5V63ZM568.594 63.3125C563.156 63.3125 560.438 60.3281 560.438 54.3594C560.438 51.3906 561.177 49.125 562.656 47.5625C564.135 45.9896 566.255 45.2031 569.016 45.2031C571.036 45.2031 572.849 45.599 574.453 46.3906L573.047 50.0781C572.297 49.776 571.599 49.5312 570.953 49.3438C570.307 49.1458 569.661 49.0469 569.016 49.0469C566.536 49.0469 565.297 50.8073 565.297 54.3281C565.297 57.7448 566.536 59.4531 569.016 59.4531C569.932 59.4531 570.781 59.3333 571.562 59.0938C572.344 58.8438 573.125 58.4583 573.906 57.9375V62.0156C573.135 62.5052 572.354 62.8438 571.562 63.0312C570.781 63.2188 569.792 63.3125 568.594 63.3125ZM585.203 48.5938C584.193 48.5938 583.401 48.9167 582.828 49.5625C582.255 50.1979 581.927 51.1042 581.844 52.2812H588.531C588.51 51.1042 588.203 50.1979 587.609 49.5625C587.016 48.9167 586.214 48.5938 585.203 48.5938ZM585.875 63.3125C583.062 63.3125 580.865 62.5365 579.281 60.9844C577.698 59.4323 576.906 57.2344 576.906 54.3906C576.906 51.4635 577.635 49.2031 579.094 47.6094C580.562 46.0052 582.589 45.2031 585.172 45.2031C587.641 45.2031 589.562 45.9062 590.938 47.3125C592.312 48.7188 593 50.6615 593 53.1406V55.4531H581.734C581.786 56.8073 582.188 57.8646 582.938 58.625C583.688 59.3854 584.74 59.7656 586.094 59.7656C587.146 59.7656 588.141 59.6562 589.078 59.4375C590.016 59.2188 590.995 58.8698 592.016 58.3906V62.0781C591.182 62.4948 590.292 62.8021 589.344 63C588.396 63.2083 587.24 63.3125 585.875 63.3125ZM609.062 57.8125C609.062 59.6042 608.438 60.9688 607.188 61.9062C605.948 62.8438 604.089 63.3125 601.609 63.3125C600.339 63.3125 599.255 63.224 598.359 63.0469C597.464 62.8802 596.625 62.6302 595.844 62.2969V58.3594C596.729 58.776 597.724 59.125 598.828 59.4062C599.943 59.6875 600.922 59.8281 601.766 59.8281C603.495 59.8281 604.359 59.3281 604.359 58.3281C604.359 57.9531 604.245 57.651 604.016 57.4219C603.786 57.1823 603.391 56.9167 602.828 56.625C602.266 56.3229 601.516 55.974 600.578 55.5781C599.234 55.0156 598.245 54.4948 597.609 54.0156C596.984 53.5365 596.526 52.9896 596.234 52.375C595.953 51.75 595.812 50.9844 595.812 50.0781C595.812 48.526 596.411 47.3281 597.609 46.4844C598.818 45.6302 600.526 45.2031 602.734 45.2031C604.839 45.2031 606.885 45.6615 608.875 46.5781L607.438 50.0156C606.562 49.6406 605.745 49.3333 604.984 49.0938C604.224 48.8542 603.448 48.7344 602.656 48.7344C601.25 48.7344 600.547 49.1146 600.547 49.875C600.547 50.3021 600.771 50.6719 601.219 50.9844C601.677 51.2969 602.672 51.7604 604.203 52.375C605.568 52.9271 606.568 53.4427 607.203 53.9219C607.839 54.401 608.307 54.9531 608.609 55.5781C608.911 56.2031 609.062 56.9479 609.062 57.8125ZM619.875 54.2344C619.875 51.474 620.276 48.8906 621.078 46.4844C621.891 44.0781 623.057 41.9688 624.578 40.1562H628.484C627.016 42.1667 625.906 44.375 625.156 46.7812C624.406 49.1875 624.031 51.6615 624.031 54.2031C624.031 56.7552 624.411 59.224 625.172 61.6094C625.943 63.9844 627.036 66.1354 628.453 68.0625H624.578C623.047 66.2917 621.88 64.224 621.078 61.8594C620.276 59.4948 619.875 56.9531 619.875 54.2344ZM641.688 45.2031C642.333 45.2031 642.87 45.25 643.297 45.3438L642.938 49.8125C642.552 49.7083 642.083 49.6562 641.531 49.6562C640.01 49.6562 638.823 50.0469 637.969 50.8281C637.125 51.6094 636.703 52.7031 636.703 54.1094V63H631.938V45.5312H635.547L636.25 48.4688H636.484C637.026 47.4896 637.755 46.7031 638.672 46.1094C639.599 45.5052 640.604 45.2031 641.688 45.2031ZM653.703 48.5938C652.693 48.5938 651.901 48.9167 651.328 49.5625C650.755 50.1979 650.427 51.1042 650.344 52.2812H657.031C657.01 51.1042 656.703 50.1979 656.109 49.5625C655.516 48.9167 654.714 48.5938 653.703 48.5938ZM654.375 63.3125C651.562 63.3125 649.365 62.5365 647.781 60.9844C646.198 59.4323 645.406 57.2344 645.406 54.3906C645.406 51.4635 646.135 49.2031 647.594 47.6094C649.062 46.0052 651.089 45.2031 653.672 45.2031C656.141 45.2031 658.062 45.9062 659.438 47.3125C660.812 48.7188 661.5 50.6615 661.5 53.1406V55.4531H650.234C650.286 56.8073 650.688 57.8646 651.438 58.625C652.188 59.3854 653.24 59.7656 654.594 59.7656C655.646 59.7656 656.641 59.6562 657.578 59.4375C658.516 59.2188 659.495 58.8698 660.516 58.3906V62.0781C659.682 62.4948 658.792 62.8021 657.844 63C656.896 63.2083 655.74 63.3125 654.375 63.3125ZM681.5 63H676.734V52.7969C676.734 51.5365 676.51 50.5938 676.062 49.9688C675.615 49.3333 674.901 49.0156 673.922 49.0156C672.589 49.0156 671.625 49.4635 671.031 50.3594C670.438 51.2448 670.141 52.7188 670.141 54.7812V63H665.375V45.5312H669.016L669.656 47.7656H669.922C670.453 46.9219 671.182 46.2865 672.109 45.8594C673.047 45.4219 674.109 45.2031 675.297 45.2031C677.328 45.2031 678.87 45.7552 679.922 46.8594C680.974 47.9531 681.5 49.5365 681.5 51.6094V63ZM693.766 59.5156C694.599 59.5156 695.599 59.3333 696.766 58.9688V62.5156C695.578 63.0469 694.12 63.3125 692.391 63.3125C690.484 63.3125 689.094 62.8333 688.219 61.875C687.354 60.9062 686.922 59.4583 686.922 57.5312V49.1094H684.641V47.0938L687.266 45.5L688.641 41.8125H691.688V45.5312H696.578V49.1094H691.688V57.5312C691.688 58.2083 691.875 58.7083 692.25 59.0312C692.635 59.3542 693.141 59.5156 693.766 59.5156ZM707.375 54.2344C707.375 56.974 706.969 59.526 706.156 61.8906C705.354 64.2552 704.193 66.3125 702.672 68.0625H698.797C700.203 66.1458 701.292 64 702.062 61.625C702.833 59.2396 703.219 56.7656 703.219 54.2031C703.219 51.6615 702.844 49.1875 702.094 46.7812C701.344 44.375 700.234 42.1667 698.766 40.1562H702.672C704.203 41.9792 705.37 44.099 706.172 46.5156C706.974 48.9219 707.375 51.4948 707.375 54.2344Z" fill="white"/>
</g>
<defs>
<clipPath id="clip0_187_1914">
<rect width="1073" height="102" fill="white"/>
</clipPath>
</defs>
</svg>

<svg width="1073" height="102" fill="none" xmlns="http://www.w3.org/2000/svg"><g clip-path="url(#clip0_187_1914)"><path fill="#C01818" fill-opacity=".8" d="M0 0h1073v102H0z"/><path d="M381.25 63h-15.969v-3.36l5.735-5.796c1.698-1.74 2.807-2.943 3.328-3.61.521-.677.896-1.302 1.125-1.875a4.756 4.756 0 00.343-1.78c0-.918-.255-1.6-.765-2.048-.5-.448-1.172-.672-2.016-.672-.885 0-1.745.203-2.578.61-.833.406-1.703.984-2.609 1.734l-2.625-3.11c1.125-.958 2.057-1.635 2.797-2.03a10.011 10.011 0 012.422-.907c.874-.218 1.854-.328 2.937-.328 1.427 0 2.687.26 3.781.781 1.094.521 1.943 1.25 2.547 2.188.604.937.906 2.01.906 3.219a7.841 7.841 0 01-.562 2.968c-.365.917-.938 1.86-1.719 2.828-.771.97-2.135 2.35-4.094 4.141l-2.937 2.766v.218h9.953V63zm16.984 0h-4.765V40.156h13.093v3.969h-8.328v5.89h7.75v3.954h-7.75V63zm17.188 0h-4.766V38.687h4.766V63zm8.812-8.766c0 1.73.282 3.037.844 3.922.573.886 1.5 1.328 2.781 1.328 1.271 0 2.183-.437 2.735-1.312.562-.886.844-2.198.844-3.938 0-1.729-.282-3.026-.844-3.89-.563-.865-1.485-1.297-2.766-1.297-1.271 0-2.187.432-2.75 1.297-.562.854-.844 2.15-.844 3.89zm12.078 0c0 2.844-.75 5.068-2.25 6.672s-3.588 2.407-6.265 2.407c-1.677 0-3.156-.365-4.438-1.094-1.281-.74-2.265-1.797-2.953-3.172-.687-1.375-1.031-2.98-1.031-4.813 0-2.854.745-5.073 2.234-6.656 1.49-1.583 3.584-2.375 6.282-2.375 1.677 0 3.156.365 4.437 1.094 1.281.729 2.266 1.776 2.953 3.14.688 1.365 1.031 2.964 1.031 4.797zm7.735 0c0 1.73.281 3.037.844 3.922.573.886 1.5 1.328 2.781 1.328 1.271 0 2.182-.437 2.734-1.312.563-.886.844-2.198.844-3.938 0-1.729-.281-3.026-.844-3.89-.562-.865-1.484-1.297-2.765-1.297-1.271 0-2.188.432-2.75 1.297-.563.854-.844 2.15-.844 3.89zm12.078 0c0 2.844-.75 5.068-2.25 6.672s-3.589 2.407-6.266 2.407c-1.677 0-3.156-.365-4.437-1.094-1.281-.74-2.266-1.797-2.953-3.172-.688-1.375-1.031-2.98-1.031-4.813 0-2.854.744-5.073 2.234-6.656 1.489-1.583 3.583-2.375 6.281-2.375 1.677 0 3.156.365 4.438 1.094 1.281.729 2.265 1.776 2.953 3.14.687 1.365 1.031 2.964 1.031 4.797zm13.687-9.03c.646 0 1.183.046 1.61.14l-.36 4.468c-.385-.104-.854-.156-1.406-.156-1.521 0-2.708.39-3.562 1.172-.844.781-1.266 1.875-1.266 3.281V63h-4.766V45.531h3.61l.703 2.938h.234a6.526 6.526 0 012.188-2.36 5.415 5.415 0 013.015-.906zm11.547 11.171v-3.906h8.391v3.906h-8.391zm41.282-4.828c0 3.781-.938 6.687-2.813 8.719-1.875 2.03-4.562 3.047-8.062 3.047-3.5 0-6.188-1.016-8.063-3.047-1.875-2.032-2.812-4.948-2.812-8.75 0-3.802.937-6.703 2.812-8.703 1.886-2.01 4.583-3.016 8.094-3.016 3.51 0 6.193 1.01 8.047 3.031 1.864 2.021 2.797 4.927 2.797 8.719zm-16.672 0c0 2.552.484 4.474 1.453 5.766.969 1.291 2.417 1.937 4.344 1.937 3.864 0 5.796-2.568 5.796-7.703 0-5.146-1.921-7.719-5.765-7.719-1.927 0-3.38.651-4.359 1.953-.98 1.292-1.469 3.214-1.469 5.766zm30.687-2.438h-4.125V63h-4.765V49.11h-2.625v-2.297l2.625-1.282V44.25c0-1.99.489-3.443 1.468-4.36.98-.916 2.547-1.374 4.704-1.374 1.645 0 3.109.244 4.39.734l-1.219 3.5c-.958-.302-1.843-.453-2.656-.453-.677 0-1.167.203-1.469.61-.302.395-.453.906-.453 1.53v1.094h4.125v3.578zm12.391 0h-4.125V63h-4.766V49.11h-2.625v-2.297l2.625-1.282V44.25c0-1.99.49-3.443 1.469-4.36.979-.916 2.547-1.374 4.703-1.374 1.646 0 3.11.244 4.391.734l-1.219 3.5c-.958-.302-1.844-.453-2.656-.453-.677 0-1.167.203-1.469.61-.302.395-.453.906-.453 1.53v1.094h4.125v3.578zm2.484-8.093c0-1.552.865-2.328 2.594-2.328 1.729 0 2.594.776 2.594 2.328 0 .74-.219 1.317-.657 1.734-.427.406-1.072.61-1.937.61-1.729 0-2.594-.782-2.594-2.344zM556.5 63h-4.766V45.531h4.766V63zm12.094.313c-5.438 0-8.156-2.985-8.156-8.954 0-2.968.739-5.234 2.218-6.797 1.479-1.572 3.599-2.359 6.36-2.359 2.02 0 3.833.396 5.437 1.188l-1.406 3.687a22.2 22.2 0 00-2.094-.734 6.581 6.581 0 00-1.937-.297c-2.48 0-3.719 1.76-3.719 5.281 0 3.417 1.239 5.125 3.719 5.125.916 0 1.765-.12 2.546-.36a9.394 9.394 0 002.344-1.156v4.079c-.771.49-1.552.828-2.344 1.015-.781.188-1.77.282-2.968.282zm16.609-14.72c-1.01 0-1.802.324-2.375.97-.573.635-.901 1.541-.984 2.718h6.687c-.021-1.177-.328-2.083-.922-2.718-.593-.646-1.395-.97-2.406-.97zm.672 14.72c-2.813 0-5.01-.777-6.594-2.329-1.583-1.552-2.375-3.75-2.375-6.593 0-2.927.729-5.188 2.188-6.782 1.468-1.604 3.495-2.406 6.078-2.406 2.469 0 4.39.703 5.766 2.11C592.312 48.718 593 50.66 593 53.14v2.312h-11.266c.052 1.354.454 2.412 1.204 3.172.75.76 1.802 1.14 3.156 1.14a13.1 13.1 0 002.984-.328c.938-.218 1.917-.567 2.938-1.046v3.687a10.95 10.95 0 01-2.672.922c-.948.208-2.104.313-3.469.313zm23.187-5.5c0 1.791-.624 3.156-1.874 4.093-1.24.938-3.099 1.407-5.579 1.407-1.27 0-2.354-.089-3.25-.266a11.976 11.976 0 01-2.515-.75v-3.938c.885.417 1.88.766 2.984 1.047 1.115.282 2.094.422 2.938.422 1.729 0 2.593-.5 2.593-1.5 0-.375-.114-.677-.343-.906-.23-.24-.625-.505-1.188-.797a27.547 27.547 0 00-2.25-1.047c-1.344-.562-2.333-1.083-2.969-1.562-.625-.48-1.083-1.026-1.375-1.641-.281-.625-.422-1.39-.422-2.297 0-1.552.599-2.75 1.797-3.594 1.209-.854 2.917-1.28 5.125-1.28 2.105 0 4.151.457 6.141 1.374l-1.437 3.438a26.473 26.473 0 00-2.454-.922 7.698 7.698 0 00-2.328-.36c-1.406 0-2.109.38-2.109 1.141 0 .427.224.797.672 1.11.458.312 1.453.775 2.984 1.39 1.365.552 2.365 1.068 3 1.547.636.479 1.104 1.031 1.406 1.656.302.625.453 1.37.453 2.234zm10.813-3.579c0-2.76.401-5.343 1.203-7.75.813-2.406 1.979-4.515 3.5-6.328h3.906a22.519 22.519 0 00-3.328 6.625 24.8 24.8 0 00-1.125 7.422c0 2.552.38 5.021 1.141 7.406.771 2.375 1.864 4.526 3.281 6.453h-3.875c-1.531-1.77-2.698-3.838-3.5-6.203-.802-2.364-1.203-4.906-1.203-7.625zm21.813-9.03c.645 0 1.182.046 1.609.14l-.359 4.468c-.386-.104-.855-.156-1.407-.156-1.521 0-2.708.39-3.562 1.172-.844.781-1.266 1.875-1.266 3.281V63h-4.765V45.531h3.609l.703 2.938h.234a6.526 6.526 0 012.188-2.36 5.416 5.416 0 013.016-.906zm12.015 3.39c-1.01 0-1.802.323-2.375.968-.573.636-.901 1.542-.984 2.72h6.687c-.021-1.178-.328-2.084-.922-2.72-.593-.645-1.395-.968-2.406-.968zm.672 14.718c-2.813 0-5.01-.776-6.594-2.328-1.583-1.552-2.375-3.75-2.375-6.593 0-2.927.729-5.188 2.188-6.782 1.468-1.604 3.495-2.406 6.078-2.406 2.469 0 4.39.703 5.766 2.11 1.374 1.406 2.062 3.348 2.062 5.828v2.312h-11.266c.052 1.354.454 2.412 1.204 3.172.75.76 1.802 1.14 3.156 1.14a13.1 13.1 0 002.984-.328c.938-.218 1.917-.567 2.938-1.046v3.687a10.95 10.95 0 01-2.672.922c-.948.208-2.104.313-3.469.313zM681.5 63h-4.766V52.797c0-1.26-.224-2.203-.672-2.828-.447-.636-1.161-.953-2.14-.953-1.333 0-2.297.448-2.891 1.343-.593.886-.89 2.36-.89 4.422V63h-4.766V45.531h3.641l.64 2.235h.266a4.993 4.993 0 012.187-1.907c.938-.437 2-.656 3.188-.656 2.031 0 3.573.552 4.625 1.656 1.052 1.094 1.578 2.677 1.578 4.75V63zm12.266-3.484c.833 0 1.833-.183 3-.547v3.547c-1.188.53-2.646.797-4.375.797-1.907 0-3.297-.48-4.172-1.438-.865-.969-1.297-2.417-1.297-4.344V49.11h-2.281v-2.015l2.625-1.594 1.375-3.688h3.047v3.72h4.89v3.577h-4.89v8.422c0 .677.187 1.177.562 1.5.385.323.891.485 1.516.485zm13.609-5.282c0 2.74-.406 5.292-1.219 7.657-.802 2.364-1.963 4.422-3.484 6.172h-3.875c1.406-1.917 2.495-4.063 3.265-6.438a23.982 23.982 0 001.157-7.422 24.8 24.8 0 00-1.125-7.422 22.519 22.519 0 00-3.328-6.625h3.906c1.531 1.823 2.698 3.943 3.5 6.36.802 2.406 1.203 4.979 1.203 7.718z" fill="#fff"/></g><defs><clipPath id="clip0_187_1914"><path fill="#fff" d="M0 0h1073v102H0z"/></clipPath></defs></svg>
